findly-builder/apps/searchassist/src/assets/icons/edge_logo.svg

<svg width="27" height="27" viewBox="0 0 27 27" fill="none" xmlns="http://www.w3.org/2000/svg">
<path d="M2.25 13.2081C2.25 8.81606 5.93831 2.25 13.5079 2.25C21.0667 2.25 24.75 7.83169 24.75 11.7591C24.75 14.9113 22.2587 17.2333 19.1295 17.2333C16.7417 17.2333 15.3276 16.4413 15.3276 15.8102C15.3276 15.4018 16.3147 14.7769 16.3147 13.5703C16.3147 12.1275 15.1976 10.6808 13.4769 10.6808C11.8266 10.6808 10.6791 12.0544 10.6791 13.4398C10.6791 16.7878 13.8459 19.9896 18.5153 19.9896C21.3047 19.9896 22.3172 18.9613 22.6794 18.9613C22.7897 18.9613 23.0434 19.0063 23.0434 19.3005C23.0434 19.5818 19.9575 24.7489 13.5146 24.7489C7.1055 24.75 2.25 19.7004 2.25 13.2081Z" fill="#1DE9B6"/>
<path d="M2.25 13.208C2.25 8.81605 6.53344 6.43555 9.41062 6.43555C16.9701 6.43555 19.1289 7.83223 19.1289 11.7596C19.1289 14.9119 16.3147 14.778 16.3147 13.5714C16.3147 12.1286 15.1976 10.6819 13.4769 10.6819C11.8266 10.6819 10.6791 12.0555 10.6791 13.4409C10.6791 16.7889 13.8459 19.9907 18.5153 19.9907C21.3047 19.9907 22.3172 18.9624 22.6794 18.9624C22.7897 18.9624 23.0434 19.0074 23.0434 19.3016C23.0434 19.5829 19.9575 24.75 13.5146 24.75C7.1055 24.75 2.25 19.7004 2.25 13.208Z" fill="url(#paint0_radial)"/>
<path d="M10.6793 13.4392C10.6793 12.1465 11.6778 10.8657 13.1515 10.6992C10.843 10.8955 8.20264 13.1602 8.20264 17.3542C8.20264 21.8333 12.0636 24.9282 16.0456 24.4574C20.7627 23.3735 23.0436 19.5412 23.0436 19.3004C23.0436 19.0062 22.7899 18.9612 22.6797 18.9612C22.318 18.9612 21.3049 19.9895 18.5155 19.9895C13.8462 19.9895 10.6793 16.7877 10.6793 13.4392Z" fill="url(#paint1_radial)"/>
<path d="M2.25 13.2081C2.25 8.81606 5.93831 2.25 13.5079 2.25C21.0667 2.25 24.75 7.83169 24.75 11.7591C24.75 14.9113 22.2587 17.2333 19.1295 17.2333C16.7417 17.2333 15.3276 16.4413 15.3276 15.8102C15.3276 15.4018 16.3147 14.7769 16.3147 13.5703C16.3147 12.1275 15.147 7.56394 9.2115 7.56394C7.56112 7.5645 2.9565 8.29406 2.25 13.2081Z" fill="url(#paint2_radial)"/>
<defs>
<radialGradient id="paint0_radial" cx="0" cy="0" r="1" gradientUnits="userSpaceOnUse" gradientTransform="translate(10.1211 18.4786) scale(12.0083 13.3087)">
<stop offset="0.652" stop-color="#0083DE"/>
<stop offset="0.822" stop-color="#006AAC"/>
<stop offset="0.944" stop-color="#005A8C"/>
</radialGradient>
<radialGradient id="paint1_radial" cx="0" cy="0" r="1" gradientUnits="userSpaceOnUse" gradientTransform="translate(15.7964 16.4857) scale(9.26887 9.29483)">
<stop offset="0.69" stop-color="#05509B"/>
<stop offset="0.717" stop-color="#054E98"/>
<stop offset="1" stop-color="#033E78"/>
</radialGradient>
<radialGradient id="paint2_radial" cx="0" cy="0" r="1" gradientUnits="userSpaceOnUse" gradientTransform="translate(26.802 9.03175) rotate(180) scale(34.6117 52.2084)">
<stop stop-color="#5EEB69"/>
<stop offset="0.214" stop-color="#4BC958"/>
<stop offset="0.225" stop-color="#4AC862"/>
<stop offset="0.272" stop-color="#47C68B"/>
<stop offset="0.323" stop-color="#44C4AE"/>
<stop offset="0.376" stop-color="#41C2CB"/>
<stop offset="0.433" stop-color="#3FC1E1"/>
<stop offset="0.495" stop-color="#3EC0F1"/>
<stop offset="0.565" stop-color="#3DBFFA"/>
<stop offset="0.664" stop-color="#3DBFFD"/>
</radialGradient>
</defs>
</svg>

<svg width="27" height="27" fill="none" xmlns="http://www.w3.org/2000/svg"><path d="M2.25 13.208C2.25 8.816 5.938 2.25 13.508 2.25c7.559 0 11.242 5.582 11.242 9.51 0 3.151-2.491 5.473-5.62 5.473-2.388 0-3.802-.792-3.802-1.423 0-.408.987-1.033.987-2.24 0-1.443-1.117-2.89-2.838-2.89-1.65 0-2.798 1.374-2.798 2.76 0 3.348 3.167 6.55 7.836 6.55 2.79 0 3.802-1.029 4.164-1.029.11 0 .364.045.364.34 0 .28-3.085 5.448-9.528 5.448C7.105 24.75 2.25 19.7 2.25 13.209Z" fill="#1DE9B6"/><path d="M2.25 13.208c0-4.392 4.283-6.772 7.16-6.772 7.56 0 9.719 1.396 9.719 5.324 0 3.152-2.814 3.018-2.814 1.811 0-1.442-1.117-2.89-2.838-2.89-1.65 0-2.798 1.375-2.798 2.76 0 3.348 3.167 6.55 7.836 6.55 2.79 0 3.802-1.029 4.164-1.029.11 0 .364.045.364.34 0 .28-3.085 5.448-9.528 5.448-6.41 0-11.265-5.05-11.265-11.542Z" fill="url(#a)"/><path d="M10.68 13.44c0-1.293.998-2.574 2.472-2.74-2.309.196-4.95 2.46-4.95 6.654 0 4.48 3.862 7.574 7.844 7.103 4.717-1.084 6.998-4.916 6.998-5.157 0-.294-.254-.339-.364-.339-.362 0-1.375 1.029-4.165 1.029-4.669 0-7.836-3.202-7.836-6.55Z" fill="url(#b)"/><path d="M2.25 13.208C2.25 8.816 5.938 2.25 13.508 2.25c7.559 0 11.242 5.582 11.242 9.51 0 3.151-2.491 5.473-5.62 5.473-2.388 0-3.802-.792-3.802-1.423 0-.408.987-1.033.987-2.24 0-1.443-1.168-6.006-7.104-6.006-1.65 0-6.255.73-6.961 5.644Z" fill="url(#c)"/><defs><radialGradient id="a" cx="0" cy="0" r="1" gradientUnits="userSpaceOnUse" gradientTransform="matrix(12.0083 0 0 13.3087 10.121 18.479)"><stop offset=".652" stop-color="#0083DE"/><stop offset=".822" stop-color="#006AAC"/><stop offset=".944" stop-color="#005A8C"/></radialGradient><radialGradient id="b" cx="0" cy="0" r="1" gradientUnits="userSpaceOnUse" gradientTransform="matrix(9.26887 0 0 9.29483 15.796 16.486)"><stop offset=".69" stop-color="#05509B"/><stop offset=".717" stop-color="#054E98"/><stop offset="1" stop-color="#033E78"/></radialGradient><radialGradient id="c" cx="0" cy="0" r="1" gradientUnits="userSpaceOnUse" gradientTransform="matrix(-34.6117 0 0 -52.2084 26.802 9.032)"><stop stop-color="#5EEB69"/><stop offset=".214" stop-color="#4BC958"/><stop offset=".225" stop-color="#4AC862"/><stop offset=".272" stop-color="#47C68B"/><stop offset=".323" stop-color="#44C4AE"/><stop offset=".376" stop-color="#41C2CB"/><stop offset=".433" stop-color="#3FC1E1"/><stop offset=".495" stop-color="#3EC0F1"/><stop offset=".565" stop-color="#3DBFFA"/><stop offset=".664" stop-color="#3DBFFD"/></radialGradient></defs></svg>
